!!!COM: Béla Bartók
!!!OTL: [T334_Bar-w27p13h7m3-10]
**kern	**kern	**dynam	**kern	**dynam
!!pagebreak:original
*clefF4	*clefF4	*	*clefG2	*
*k[]	*k[]	*	*k[]	*
*C:	*C:	*	*C:	*
*M2/4	*M2/4	*	*M2/4	*
=1	=1	=1	=1	=1
*^	*	*	*	*
!	!	!LO:TX:b:t=[p]	!	!LO:TX:t=[quarter]=120	!
!	!	!LO:TX:b:t=[p]	!	!LO:TX:b:t=[p]	!
2ryy	8EEEL 8BBB	2ryy	.	(16cc#XLL	.
.	.	.	.	16a	.
*v	*v	*^	*	*	*
.	.	8FF^J 8C	.	16gJJ)	.
.	.	.	.	(16ccnLL	.
*^	*v	*v	*	*	*
.	8BBL 8D#X	.	.	16b-X	.
.	.	.	.	16gJJ)	.
*v	*v	*^	*	*	*
.	.	8B-XJ 8dn	.	16r	.
.	.	.	.	(16cc#XLL	<
*	*v	*v	*	*	*
=2	=2	=2	=2	=2
*^	*	*	*	*
2ryy	8EEE^L 8BBBn	2ryy	.	16a	.
.	.	.	.	16gJJ)	.
*v	*v	*^	*	*	*
.	.	8FFJ 8C	.	(16ccnLL	.
.	.	.	.	16b-XJ	.
*^	*v	*v	*	*	*
.	8BBnL 8D#X	.	.	8gJ)	p [
*v	*v	*^	*	*	*
.	.	8B-X^J 8dn	.	(16gLL	.
.	.	.	.	16aJJ	.
*	*v	*v	*	*	*
=3	=3	=3	=3	=3
*^	*	*	*	*
2ryy	8EEEL 8BBBn	2ryy	.	16bLL	.
.	.	.	.	16cc#X	.
*v	*v	*^	*	*	*
.	.	8FFJ 8C	.	16dd#X	.
.	.	.	.	16eeJJ	.
*^	*v	*v	*	*	*
.	8BBn^L 8D#X	.	.	16dd#LL	<
.	.	.	.	16ee	.
*v	*v	*^	*	*	*
.	.	8B-XJ 8dn	.	16ff^	[
.	.	.	.	16eeJJ	.
*	*v	*v	*	*	*
=4	=4	=4	=4	=4
*^	*	*	*	*
2ryy	8EEEL 8BBBn	2ryy	.	16dd#XLL	.
.	.	.	.	16ee	.
*v	*v	*^	*	*	*
.	.	8FF^J 8C	.	16dd#	.
.	.	.	.	16cc#XJJ)	.
*^	*v	*v	*	*	*
.	8BBnL 8D#X	.	.	(16dd#LL	.
.	.	.	.	16cc#	.
*v	*v	*^	*	*	*
.	.	8B-XJ 8dn	.	16bJ	.
.	.	.	.	16cc#L	.
*	*v	*v	*	*	*
!!linebreak:original
=5	=5	=5	=5	=5
*^	*	*	*	*
2ryy	8EEE^L 8BBBn	2ryy	.	16b	.
.	.	.	.	16aJ	.
*v	*v	*^	*	*	*
.	.	8FFJ 8C	.	16bL	.
.	.	.	.	16aJ	.
*^	*v	*v	*	*	*
.	8BBnL 8D#X	.	.	8g'J)	.
*v	*v	*^	*	*	*
.	.	8B-X^J 8dn	.	(16cc#X^LL	.
.	.	.	.	16a	.
*	*v	*v	*	*	*
=6	=6	=6	=6	=6
*^	*	*	*	*
2ryy	8EEEL 8BBBn	2ryy	.	16gJJ)	.
.	.	.	.	(16ccn^LL	.
*v	*v	*^	*	*	*
.	.	8FFJ 8C	.	16b-X	.
.	.	.	.	16gJJ)	.
*^	*v	*v	*	*	*
.	8BBn^L 8D#X	.	.	16r	.
.	.	.	.	(16cc#X^LL	.
*v	*v	*^	*	*	*
.	.	8B-XJ 8dn	.	16a	.
.	.	.	.	16gJJ)	.
*	*v	*v	*	*	*
=7	=7	=7	=7	=7
*^	*	*	*	*
2ryy	8EEEL 8BBBn	2ryy	< <	(16ccn^^^LL	.
.	.	.	.	16b-X	.
*v	*v	*^	*	*	*
.	.	8FF^J 8C	.	16gJJ)	.
.	.	.	.	16r	.
*^	*v	*v	*	*	*
.	8BBnL 8D#X	.	.	(16ccc#XLL	sf
.	.	.	.	16aa	.
*v	*v	*^	*	*	*
.	.	8B-XJ 8dn	.	16ggJJ)	.
.	.	.	.	16r	.
*	*v	*v	*	*	*
=8	=8	=8	=8	=8
*^	*	*	*	*
2ryy	8EEE^L 8BBBn	2ryy	[ [	(16ccn^^^LL	<
.	.	.	.	16b-X	.
*v	*v	*^	*	*	*
.	.	8FFJ 8C	.	16gJJ)	.
.	.	.	.	16r	.
*^	*v	*v	*	*	*
.	8BBn^L 8D#X	.	.	(16c#XLL	[
.	.	.	.	16An	f
*v	*v	*^	*	*	*
.	.	8B-XJ 8dn	.	16GJJ)	.
.	.	.	.	16r	.
*	*v	*v	*	*	*
=	=	=	=	=
*-	*-	*-	*-	*-
!!!system-decoration: s1[({(s2,s3)})]
